X: 41029
T: Trip To Kilmurry, The
R: hornpipe
M: 4/4
K: Gmajor
dc|:Bd c/B/A G3A|BG B/c/d e2 g/f/e|de dB GA Bd|c2 A2 A2 dc|
Bd c/B/A G3A|BG B/c/d e2 g/f/e|de dB GA BG|1 BA G2 G3A:|2 BA G2 G2 d/e/f||
|:g2 ga gf ed|e/f/g ed AB Bd|e/f/g ed BA GB|c2 A2 A2 dc|
Bd c/B/A G3A|BG B/c/d e2 g/f/e|de dB GA BG|1 BA G2 G2 d/e/f:|2 BA G2 G2||

